assets/icons/qvision/photo_filter.svg

<svg width="24" height="24" viewBox="0 0 24 24" fill="none" xmlns="http://www.w3.org/2000/svg">
<g clip-path="url(#clip0_147_3675)">
<path d="M19.02 10V19H5.00002V5H14V3H5.02002C3.92002 3 3.02002 3.9 3.02002 5V19C3.02002 20.1 3.92002 21 5.02002 21H19.02C20.12 21 21.02 20.1 21.02 19V10H19.02ZM17 10L17.94 7.94L20 7L17.94 6.06L17 4L16.06 6.06L14 7L16.06 7.94L17 10ZM13.25 10.75L12 8L10.75 10.75L8.00002 12L10.75 13.25L12 16L13.25 13.25L16 12L13.25 10.75Z" fill="#323232"/>
</g>
<defs>
<clipPath id="clip0_147_3675">
<rect width="24" height="24" fill="white"/>
</clipPath>
</defs>
</svg>

<svg xmlns="http://www.w3.org/2000/svg" height="24" viewBox="0 0 24 24" width="24"><path d="M0 0h24v24H0V0z" fill="none"/><path d="M19.02 10v9H5V5h9V3H5.02c-1.1 0-2 .9-2 2v14c0 1.1.9 2 2 2h14c1.1 0 2-.9 2-2v-9h-2zM17 10l.94-2.06L20 7l-2.06-.94L17 4l-.94 2.06L14 7l2.06.94zm-3.75.75L12 8l-1.25 2.75L8 12l2.75 1.25L12 16l1.25-2.75L16 12z"/></svg>
